src/pages/settings/assets/mutant_emoji.svg

<svg width="168" height="48" viewBox="0 0 168 48" fill="none" xmlns="http://www.w3.org/2000/svg">
<path d="M46.6542 31.4888C46.6542 34.5025 45.8664 36.6415 44.6376 38.2006C43.3969 39.7748 41.6127 40.8766 39.4233 41.6367C34.9808 43.1788 29.2654 43.1935 24.1496 43.1935C19.0358 43.1935 13.2409 43.1793 8.71974 41.6345C6.48927 40.8724 4.66749 39.7674 3.40073 38.1907C2.14775 36.6313 1.34512 34.4956 1.34512 31.4888C1.34512 25.8668 2.55606 19.0242 6.00774 13.6332C9.40822 8.32209 15.0271 4.33438 24.1496 4.33438C32.7968 4.33438 38.3534 8.3292 41.8066 13.6813C45.3033 19.1009 46.6542 25.9511 46.6542 31.4888Z" fill="#FBC546" stroke="black" stroke-width="2.69025"/>
<path fill-rule="evenodd" clip-rule="evenodd" d="M16.2728 33.3183C13.8733 31.4729 12.147 28.7982 11.5225 25.7256H36.6027C35.9782 28.7982 34.2518 31.4729 31.8523 33.3183C30.4293 31.7762 17.6959 31.7762 16.2728 33.3183Z" fill="#722245"/>
<path fill-rule="evenodd" clip-rule="evenodd" d="M16.2744 33.3182C17.6975 31.7761 19.7271 30.8445 21.9206 30.8445C23.3155 30.8445 24.8128 30.8445 26.2077 30.8445C28.4012 30.8445 30.4309 31.7761 31.8539 33.3182C29.6963 34.9768 26.9948 35.9634 24.0642 35.9634C21.1336 35.9634 18.432 34.9768 16.2744 33.3182Z" fill="#CA3B8F"/>
<path fill-rule="evenodd" clip-rule="evenodd" d="M15.7473 24.4461C16.9349 24.4461 18.0725 23.9739 18.912 23.1344C19.7516 22.2949 20.2238 21.1572 20.2238 19.9696C20.2238 19.1288 20.2238 18.2483 20.2238 17.4075C20.2238 14.9338 18.2184 12.9285 15.7447 12.9285H15.7421C14.5545 12.9285 13.4169 13.4007 12.5774 14.2402C11.7378 15.0797 11.2656 16.2174 11.2656 17.405C11.2656 18.2458 11.2656 19.1262 11.2656 19.967C11.2656 22.4407 13.271 24.4461 15.7447 24.4461H15.7473V24.4461Z" fill="white"/>
<path fill-rule="evenodd" clip-rule="evenodd" d="M13.8252 16.7675C13.8252 16.0892 14.0952 15.4378 14.5751 14.9579C15.055 14.478 15.7064 14.208 16.3847 14.208C17.0629 14.208 17.7143 14.478 18.1942 14.9579C18.6741 15.4378 18.9441 16.0892 18.9441 16.7675C18.9441 17.9653 18.9441 19.3884 18.9441 20.5849C18.9441 21.2645 18.6741 21.9146 18.1942 22.3958C17.7143 22.8757 17.0629 23.1444 16.3847 23.1444C15.7064 23.1444 15.055 22.8757 14.5751 22.3958C14.0952 21.9146 13.8252 21.2645 13.8252 20.5849C13.8252 19.3884 13.8252 17.9653 13.8252 16.7675Z" fill="black"/>
<path fill-rule="evenodd" clip-rule="evenodd" d="M32.3789 24.4458C31.1913 24.4458 30.0536 23.9736 29.2141 23.1341C28.3746 22.2946 27.9023 21.1569 27.9023 19.9693C27.9023 19.1285 27.9023 18.2481 27.9023 17.4073C27.9023 14.9336 29.9077 12.9282 32.3814 12.9282H32.384C33.5716 12.9282 34.7093 13.4004 35.5488 14.24C36.3883 15.0795 36.8605 16.2171 36.8605 17.4047C36.8605 18.2455 36.8605 19.126 36.8605 19.9668C36.8605 22.4405 34.8551 24.4458 32.3814 24.4458H32.3789Z" fill="white"/>
<path fill-rule="evenodd" clip-rule="evenodd" d="M34.3006 16.7675C34.3006 16.0892 34.0306 15.4378 33.5507 14.9579C33.0708 14.478 32.4194 14.208 31.7411 14.208C31.0629 14.208 30.4115 14.478 29.9316 14.9579C29.4517 15.4378 29.1816 16.0892 29.1816 16.7675C29.1816 17.9653 29.1816 19.3884 29.1816 20.5849C29.1816 21.2645 29.4517 21.9146 29.9316 22.3958C30.4115 22.8757 31.0629 23.1444 31.7411 23.1444C32.4194 23.1444 33.0708 22.8757 33.5507 22.3958C34.0306 21.9146 34.3006 21.2645 34.3006 20.5849C34.3006 19.3884 34.3006 17.9653 34.3006 16.7675Z" fill="black"/>
<g clip-path="url(#clip0)">
<path fill-rule="evenodd" clip-rule="evenodd" d="M123 45C123 45 127.019 28.9275 129.02 20.922C129.669 18.3225 132.004 16.5 134.683 16.5H134.685C143.971 16.5 151.5 24.0285 151.5 33.315V33.3165C151.5 35.9955 149.678 38.331 147.078 38.9805C139.073 40.9815 123 45 123 45Z" stroke="black" stroke-width="6" stroke-miterlimit="1.5" stroke-linecap="round" stroke-linejoin="round"/>
<path d="M142.5 25.5C142.5 25.5 145.146 24.177 147.568 22.9665C150.106 21.696 152.113 19.569 153.231 16.959C153.364 16.6485 153.501 16.332 153.636 16.0155C155.07 12.669 158.359 10.5 162 10.5" stroke="black" stroke-width="9" stroke-miterlimit="1.5" stroke-linecap="square" stroke-linejoin="round"/>
<path d="M136.5 19.5C136.5 19.5 136.5 18.5295 136.5 17.49C136.5 15.9645 137.362 14.5695 138.727 13.887C138.727 13.8855 138.729 13.8855 138.731 13.8855C139.73 13.3845 140.49 12.5085 140.844 11.448C141.196 10.3875 141.116 9.2295 140.615 8.2305C140.013 7.026 139.5 6 139.5 6" stroke="black" stroke-width="9" stroke-miterlimit="1.5" stroke-linecap="square" stroke-linejoin="round"/>
<path d="M150.75 30.75C150.75 30.75 151.517 30.75 152.417 30.75C154.28 30.75 156.117 31.1835 157.783 32.0175C159.421 32.8365 161.25 33.75 161.25 33.75" stroke="black" stroke-width="9" stroke-miterlimit="1.5" stroke-linecap="square" stroke-linejoin="round"/>
<path fill-rule="evenodd" clip-rule="evenodd" d="M142.5 13.5L145.5 10.5L148.5 13.5L145.5 16.5L142.5 13.5Z" stroke="black" stroke-width="6" stroke-miterlimit="1.5" stroke-linecap="round" stroke-linejoin="round"/>
<path fill-rule="evenodd" clip-rule="evenodd" d="M148.5 7.5L150 3L154.5 4.5L153 9L148.5 7.5Z" stroke="black" stroke-width="6" stroke-miterlimit="1.5" stroke-linecap="round" stroke-linejoin="round"/>
<path fill-rule="evenodd" clip-rule="evenodd" d="M150 27L151.5 22.5L156 24L154.5 28.5L150 27Z" stroke="black" stroke-width="6" stroke-miterlimit="1.5" stroke-linecap="round" stroke-linejoin="round"/>
<path fill-rule="evenodd" clip-rule="evenodd" d="M127.5 9L130.5 6L133.5 9L130.5 12L127.5 9Z" stroke="black" stroke-width="6" stroke-miterlimit="1.5" stroke-linecap="round" stroke-linejoin="round"/>
<path fill-rule="evenodd" clip-rule="evenodd" d="M159 19.5L162 16.5L165 19.5L162 22.5L159 19.5Z" stroke="black" stroke-width="6" stroke-miterlimit="1.5" stroke-linecap="round" stroke-linejoin="round"/>
<path fill-rule="evenodd" clip-rule="evenodd" d="M142.5 10.5L150 7.5H159V21H135V9L142.5 10.5Z" fill="black"/>
<path fill-rule="evenodd" clip-rule="evenodd" d="M130.5 18.2695L149.734 37.504C149.014 38.206 148.107 38.728 147.078 38.9845C139.073 40.9855 123 45.004 123 45.004C123 45.004 127.019 28.9315 129.02 20.926C129.276 19.897 129.798 18.9895 130.5 18.2695Z" fill="#E4AB1B"/>
<path fill-rule="evenodd" clip-rule="evenodd" d="M130.5 18.2655C131.571 17.166 133.065 16.5 134.683 16.5H134.685C143.971 16.5 151.5 24.0285 151.5 33.315V33.3165C151.5 34.935 150.834 36.429 149.734 37.5H148.5C143.725 37.5 139.148 35.604 135.773 32.2275C132.396 28.8525 130.5 24.2745 130.5 19.5V18.2655V18.2655Z" fill="#5E3D05"/>
<path d="M142.5 25.5C142.5 25.5 145.146 24.177 147.568 22.9665C150.106 21.696 152.113 19.569 153.231 16.959C153.364 16.6485 153.501 16.332 153.636 16.0155C155.07 12.669 158.359 10.5 162 10.5" stroke="#37CBE8" stroke-width="3" stroke-miterlimit="1.5" stroke-linecap="square" stroke-linejoin="round"/>
<path d="M136.5 19.5C136.5 19.5 136.5 18.5295 136.5 17.49C136.5 15.9645 137.362 14.5695 138.727 13.887C138.727 13.8855 138.729 13.8855 138.731 13.8855C139.73 13.3845 140.49 12.5085 140.844 11.448C141.196 10.3875 141.116 9.2295 140.615 8.2305C140.013 7.026 139.5 6 139.5 6" stroke="#F2C618" stroke-width="3" stroke-miterlimit="1.5" stroke-linecap="square" stroke-linejoin="round"/>
<path d="M150.75 30.75C150.75 30.75 151.517 30.75 152.417 30.75C154.28 30.75 156.117 31.1835 157.783 32.0175C159.421 32.8365 161.25 33.75 161.25 33.75" stroke="#FF4586" stroke-width="3" stroke-miterlimit="1.5" stroke-linecap="square" stroke-linejoin="round"/>
<path fill-rule="evenodd" clip-rule="evenodd" d="M142.5 13.5L145.5 10.5L148.5 13.5L145.5 16.5L142.5 13.5Z" fill="#9146DC"/>
<path fill-rule="evenodd" clip-rule="evenodd" d="M127.5 9L130.5 6L133.5 9L130.5 12L127.5 9Z" fill="#9146DC"/>
<path fill-rule="evenodd" clip-rule="evenodd" d="M159 19.5L162 16.5L165 19.5L162 22.5L159 19.5Z" fill="#9146DC"/>
<path fill-rule="evenodd" clip-rule="evenodd" d="M148.5 7.5L150 3L154.5 4.5L153 9L148.5 7.5Z" fill="#F2298A"/>
<path fill-rule="evenodd" clip-rule="evenodd" d="M150 27L151.5 22.5L156 24L154.5 28.5L150 27Z" fill="#F2C618"/>
</g>
<path fill-rule="evenodd" clip-rule="evenodd" d="M96 34.5L105 43.5V45H93C93 45 87.5445 39.5445 85.9395 37.9395C85.6575 37.6575 85.5 37.2765 85.5 36.879C85.5 33.1425 85.5 13.5765 85.5 6C85.5 4.3425 86.8425 3 88.5 3C88.5 3 93.876 13.752 95.5245 17.0505C95.838 17.6745 96 18.363 96 19.062C96 22.71 96 34.5 96 34.5Z" stroke="black" stroke-width="6" stroke-miterlimit="2" stroke-linejoin="round"/>
<path fill-rule="evenodd" clip-rule="evenodd" d="M72 34.5L63 43.5V45H75C75 45 80.4555 39.5445 82.0605 37.9395C82.3425 37.6575 82.5 37.2765 82.5 36.879C82.5 33.1425 82.5 13.5765 82.5 6C82.5 4.3425 81.1575 3 79.5 3C79.5 3 74.124 13.752 72.4755 17.0505C72.162 17.6745 72 18.363 72 19.062C72 22.71 72 34.5 72 34.5Z" stroke="black" stroke-width="6" stroke-miterlimit="2" stroke-linejoin="round"/>
<path fill-rule="evenodd" clip-rule="evenodd" d="M72 34.5H75L78.75 38.25V41.25L75 45H63V43.5L72 34.5Z" fill="#CE8D15"/>
<path fill-rule="evenodd" clip-rule="evenodd" d="M96 34.5H93L89.25 38.25V41.25L93 45H105V43.5L96 34.5Z" fill="#CE8D15"/>
<path fill-rule="evenodd" clip-rule="evenodd" d="M72 34.5L78.75 41.25C78.75 41.25 81.0705 38.9295 82.0605 37.9395C82.3425 37.6575 82.5 37.2765 82.5 36.879C82.5 33.1425 82.5 13.5765 82.5 6C82.5 4.3425 81.1575 3 79.5 3C79.5 3 74.124 13.752 72.4755 17.0505C72.162 17.6745 72 18.363 72 19.062C72 22.71 72 34.5 72 34.5Z" fill="#FFC20B"/>
<path fill-rule="evenodd" clip-rule="evenodd" d="M82.5 36H79.5C77.8425 36 76.5 34.6575 76.5 33C76.5 33 76.5 20.823 76.5 16.5C76.5 15.306 76.974 14.1615 77.8185 13.3185C78.6615 12.474 79.806 12 81 12L81.2235 12.006C82.335 12.06 83.391 12.5265 84.1815 13.3185C85.026 14.1615 85.5 15.306 85.5 16.5V33C85.5 34.6575 84.1575 36 82.5 36ZM79.5 33H82.5V16.5C82.5 16.1025 82.3425 15.72 82.0605 15.4395C81.78 15.1575 81.3975 15 81 15C80.6025 15 80.22 15.1575 79.9395 15.4395C79.6575 15.72 79.5 16.1025 79.5 16.5C79.5 20.823 79.5 33 79.5 33Z" fill="#765018"/>
<path fill-rule="evenodd" clip-rule="evenodd" d="M75 36V31.5H85.5V37.5H76.5L75 36Z" fill="#FFC20B"/>
<path fill-rule="evenodd" clip-rule="evenodd" d="M96 34.5L89.25 41.25C89.25 41.25 86.9295 38.9295 85.9395 37.9395C85.6575 37.6575 85.5 37.2765 85.5 36.879C85.5 33.1425 85.5 13.5765 85.5 6C85.5 4.3425 86.8425 3 88.5 3C88.5 3 93.876 13.752 95.5245 17.0505C95.838 17.6745 96 18.363 96 19.062C96 22.71 96 34.5 96 34.5Z" fill="#FFC20B"/>
<path fill-rule="evenodd" clip-rule="evenodd" d="M88.5 36C90.1575 36 91.5 34.6575 91.5 33C91.5 33 91.5 20.823 91.5 16.5C91.5 15.306 91.026 14.1615 90.1815 13.3185C89.3385 12.474 88.194 12 87 12C85.806 12 84.6615 12.474 83.8185 13.3185C82.974 14.1615 82.5 15.306 82.5 16.5C82.5 20.823 82.5 33 82.5 33C82.5 34.6575 83.8425 36 85.5 36H88.5ZM88.5 33V16.5C88.5 16.1025 88.3425 15.72 88.0605 15.4395C87.78 15.1575 87.3975 15 87 15C86.6025 15 86.22 15.1575 85.9395 15.4395C85.6575 15.72 85.5 16.1025 85.5 16.5V33H88.5Z" fill="#765018"/>
<path fill-rule="evenodd" clip-rule="evenodd" d="M91.5 37.5L93 36V31.5H82.5V37.5H91.5Z" fill="#FFC20B"/>
<defs>
<clipPath id="clip0">
<rect width="48" height="48" fill="white" transform="translate(120)"/>
</clipPath>
</defs>
</svg>

<svg xmlns="http://www.w3.org/2000/svg" xmlns:xlink="http://www.w3.org/1999/xlink" width="168" height="48" fill="none" xmlns:v="https://vecta.io/nano"><style><![CDATA[.B{fill-rule:evenodd}.C{stroke-linejoin:round}.D{stroke-width:6}.E{fill:#ffc20b}.F{stroke-miterlimit:1.5}.G{stroke-linecap:square}]]></style><path d="M46.654 31.489c0 3.014-.788 5.153-2.017 6.712-1.241 1.574-3.025 2.676-5.214 3.436-4.442 1.542-10.158 1.557-15.274 1.557s-10.909-.014-15.43-1.559c-2.23-.762-4.052-1.867-5.319-3.444-1.253-1.559-2.056-3.695-2.056-6.702 0-5.622 1.211-12.465 4.663-17.856 3.4-5.311 9.019-9.299 18.142-9.299 8.647 0 14.204 3.995 17.657 9.347 3.497 5.42 4.848 12.27 4.848 17.808z" fill="#fbc546" stroke="#000" stroke-width="2.69"/><g class="B"><path d="M16.273 33.318c-2.399-1.845-4.126-4.52-4.75-7.593h25.08c-.624 3.073-2.351 5.747-4.75 7.593-1.423-1.542-14.156-1.542-15.579 0z" fill="#722245"/><path d="M16.274 33.318a7.68 7.68 0 0 1 5.646-2.474h4.287a7.68 7.68 0 0 1 5.646 2.474 12.74 12.74 0 0 1-7.79 2.645 12.74 12.74 0 0 1-7.79-2.645z" fill="#ca3b8f"/><path d="M15.747 24.446c1.188 0 2.325-.472 3.165-1.312s1.312-1.977 1.312-3.165v-2.562a4.48 4.48 0 0 0-4.479-4.479h-.003c-1.188 0-2.325.472-3.165 1.312s-1.312 1.977-1.312 3.165v2.562a4.48 4.48 0 0 0 4.479 4.479h.003 0z" fill="#fff"/><path d="M13.825 16.768a2.56 2.56 0 0 1 2.559-2.559 2.56 2.56 0 0 1 2.559 2.559v3.817c0 .68-.27 1.33-.75 1.811a2.56 2.56 0 0 1-3.619 0c-.48-.481-.75-1.131-.75-1.811v-3.817z" fill="#000"/><path d="M32.379 24.446c-1.188 0-2.325-.472-3.165-1.312s-1.312-1.977-1.312-3.165v-2.562a4.48 4.48 0 0 1 4.479-4.479h.003c1.188 0 2.325.472 3.165 1.312s1.312 1.977 1.312 3.165v2.562a4.48 4.48 0 0 1-4.479 4.479h-.002z" fill="#fff"/><path d="M34.301 16.768a2.56 2.56 0 0 0-2.56-2.559 2.56 2.56 0 0 0-2.559 2.559v3.817c0 .68.27 1.33.75 1.811a2.56 2.56 0 0 0 3.619 0c.48-.481.75-1.131.75-1.811v-3.817z" fill="#000"/></g><g clip-path="url(#A)"><g stroke="#000" class="C F"><path d="M123 45l6.02-24.078c.649-2.599 2.984-4.422 5.663-4.422h.002A16.82 16.82 0 0 1 151.5 33.315v.002c0 2.679-1.822 5.015-4.422 5.664L123 45z" class="D"/><g stroke-width="9" class="G"><use xlink:href="#B"/><use xlink:href="#C"/><path d="M150.75 30.75h1.667c1.863 0 3.7.433 5.366 1.267l3.467 1.733"/></g><g class="D"><path d="M142.5 13.5l3-3 3 3-3 3-3-3zm6-6L150 3l4.5 1.5L153 9l-4.5-1.5zM150 27l1.5-4.5L156 24l-1.5 4.5L150 27zM127.5 9l3-3 3 3-3 3-3-3zM159 19.5l3-3 3 3-3 3-3-3z"/></g></g><g class="B"><path d="M142.5 10.5l7.5-3h9V21h-24V9l7.5 1.5z" fill="#000"/><path d="M130.5 18.27l19.234 19.234a5.81 5.81 0 0 1-2.656 1.48L123 45.004l6.02-24.078a5.81 5.81 0 0 1 1.48-2.656z" fill="#e4ab1b"/><path d="M130.5 18.266c1.071-1.099 2.565-1.765 4.183-1.765h.002A16.82 16.82 0 0 1 151.5 33.315v.002c0 1.619-.666 3.113-1.766 4.184H148.5a17.99 17.99 0 0 1-18-18v-1.235h0z" fill="#5e3d05"/></g><g stroke-width="3" class="C F G"><use xlink:href="#B" stroke="#37cbe8"/><use xlink:href="#C" stroke="#f2c618"/><path d="M150.75 30.75h1.667c1.863 0 3.7.433 5.366 1.267l3.467 1.733" stroke="#ff4586"/></g><g class="B"><g fill="#9146dc"><path d="M142.5 13.5l3-3 3 3-3 3-3-3zm-15-4.5l3-3 3 3-3 3-3-3zM159 19.5l3-3 3 3-3 3-3-3z"/></g><path d="M148.5 7.5L150 3l4.5 1.5L153 9l-4.5-1.5z" fill="#f2298a"/><path d="M150 27l1.5-4.5L156 24l-1.5 4.5L150 27z" fill="#f2c618"/></g></g><path d="M96 34.5l9 9V45H93l-7.061-7.06a1.5 1.5 0 0 1-.439-1.061V6a3 3 0 0 1 3-3l7.025 14.051A4.48 4.48 0 0 1 96 19.062V34.5zm-24 0l-9 9V45h12l7.061-7.06a1.5 1.5 0 0 0 .439-1.061V6a3 3 0 0 0-3-3l-7.025 14.051A4.48 4.48 0 0 0 72 19.062V34.5z" stroke="#000" stroke-miterlimit="2" class="C D"/><g class="B"><path d="M72 34.5h3l3.75 3.75v3L75 45H63v-1.5l9-9zm24 0h-3l-3.75 3.75v3L93 45h12v-1.5l-9-9z" fill="#ce8d15"/><path d="M72 34.5l6.75 6.75 3.311-3.31a1.5 1.5 0 0 0 .439-1.061V6a3 3 0 0 0-3-3l-7.025 14.051A4.48 4.48 0 0 0 72 19.062V34.5z" class="E"/><path d="M82.5 36h-3a3 3 0 0 1-3-3V16.5c0-1.194.474-2.338 1.319-3.181S79.806 12 81 12l.224.006a4.49 4.49 0 0 1 2.958 1.313c.844.843 1.319 1.987 1.319 3.182V33a3 3 0 0 1-3 3zm-3-3h3V16.5c0-.398-.157-.78-.439-1.06S81.398 15 81 15s-.78.158-1.061.44-.439.663-.439 1.06V33z" fill="#765018"/><g class="E"><path d="M75 36v-4.5h10.5v6h-9L75 36z"/><path d="M96 34.5l-6.75 6.75-3.311-3.31a1.5 1.5 0 0 1-.439-1.061V6a3 3 0 0 1 3-3l7.025 14.051A4.48 4.48 0 0 1 96 19.062V34.5z"/></g><path d="M88.5 36a3 3 0 0 0 3-3V16.5c0-1.194-.474-2.338-1.319-3.181S88.194 12 87 12s-2.338.474-3.181 1.319S82.5 15.306 82.5 16.5V33a3 3 0 0 0 3 3h3zm0-3V16.5c0-.398-.157-.78-.439-1.06S87.398 15 87 15s-.78.158-1.061.44-.439.663-.439 1.06V33h3z" fill="#765018"/><path d="M91.5 37.5L93 36v-4.5H82.5v6h9z" class="E"/></g><defs><clipPath id="A"><path fill="#fff" transform="translate(120)" d="M0 0h48v48H0z"/></clipPath><path id="B" d="M142.5 25.5l5.068-2.533c2.538-1.27 4.545-3.398 5.663-6.007l.405-.944A9.1 9.1 0 0 1 162 10.5"/><path id="C" d="M136.5 19.5v-2.01a4.03 4.03 0 0 1 2.227-3.603c1.003-.503 1.763-1.379 2.117-2.439s.272-2.219-.229-3.218L139.5 6"/></defs></svg>
